fs/hard_drive_20_regular.svg

<svg viewBox="0 0 20 20" fill="none" xmlns="http://www.w3.org/2000/svg" height="1em" width="1em">
  <path d="M14.25 13.5C14.6642 13.5 15 13.1642 15 12.75C15 12.3358 14.6642 12 14.25 12C13.8358 12 13.5 12.3358 13.5 12.75C13.5 13.1642 13.8358 13.5 14.25 13.5ZM2.23739 10.8435C2.08076 11.2089 2 11.6024 2 12V14C2 15.1046 2.89543 16 4 16H16C17.1046 16 18 15.1046 18 14V12C18 11.6163 17.9394 11.2308 17.8103 10.8618C16.9887 8.51197 15.9274 6.25021 15.356 5.08776C15.0231 4.41071 14.335 4 13.5931 4H6.48913C5.68907 4 4.966 4.47679 4.65084 5.21215L2.23739 10.8435ZM6.48913 5H13.5931C13.9664 5 14.2994 5.20511 14.4586 5.52894C14.9283 6.48449 15.7287 8.18365 16.4466 10.05C16.303 10.0173 16.1535 10 16 10H4C3.88956 10 3.78121 10.009 3.67563 10.0262L5.56998 5.60608C5.72756 5.2384 6.0891 5 6.48913 5ZM17 14C17 14.5523 16.5523 15 16 15H4C3.44772 15 3 14.5523 3 14V12C3 11.4477 3.44772 11 4 11H16C16.5523 11 17 11.4477 17 12V14Z" fill="#212121"/>
</svg>

<svg viewBox="0 0 20 20" fill="none" xmlns="http://www.w3.org/2000/svg" height="1em" width="1em">
  <path d="M14.25 13.5a.75.75 0 1 0 0-1.5.75.75 0 0 0 0 1.5ZM2.237 10.844A2.936 2.936 0 0 0 2 12v2a2 2 0 0 0 2 2h12a2 2 0 0 0 2-2v-2c0-.384-.06-.77-.19-1.138-.821-2.35-1.883-4.612-2.454-5.774A1.957 1.957 0 0 0 13.593 4H6.49a2 2 0 0 0-1.838 1.212l-2.414 5.632ZM6.49 5h7.104c.373 0 .706.205.866.529.47.955 1.27 2.655 1.988 4.521A2.01 2.01 0 0 0 16 10H4c-.11 0-.219.009-.324.026l1.894-4.42A1 1 0 0 1 6.49 5ZM17 14a1 1 0 0 1-1 1H4a1 1 0 0 1-1-1v-2a1 1 0 0 1 1-1h12a1 1 0 0 1 1 1v2Z" fill="#212121"/>
</svg>
